!!!OTL: IN LAUTERBACH
!!!ARE: Europa, Mitteleuropa, Deutschland
!!!SCT: F0183
!!!YEM: Copyright 1995, estate of Helmut Schaffrath.
**kern
*ICvox
*Ivox
*M6/8
*k[f#c#g#]
*A:
{8e
=1
8.e
16a
8a
8a
8g#
8a
=2
8.e
16b
8b
4b}
{8ee
=3
8.cc#
16cc#
8cc#
8b
8a
8b
=4
4.a
4r}
{8e
=5
8.e
16a
8a
8a
8g#
8a
=6
8.e
16b
8b
4b}
{8ee
=7
8.cc#
16cc#
8cc#
8b
8a
8b
=8
4.a
4r}
{8e
=9
8.ee
16ee
8ee
8ee
8dd
8cc#
=10
8.e
16dd
8dd
4dd}
{8e
=11
8.cc#
16cc#
8cc#
8cc#
8b
8a
=12
4.b
4r}
{8e
=13
8.f#
16e
8e
8e
8cc#
8b
=14
4.a
4r}
{8e
=15
8.ee
16ee
8ee
8ee
8dd
8cc#
=16
8.e
16dd
8dd
4dd}
{8e
=17
8.cc#
16cc#
8cc#
8cc#
8b
8a
=18
4.b
4r}
{8e
=19
8.f#
16e
8e
8e
8cc#
8b
=20
4.a
4r}
==
!!!AGN: Scherz - Lied
!!!ONB: ESAC (Essen Associative Code) Database: FINK
!!!AMT: compound duple
!!!AIN: vox
!!!EED: Helmut Schaffrath
!!!EEV: 1.0
*-
